svg/cardiogram_negative.svg

<svg width="48" height="48" viewBox="0 0 48 48" fill="none" xmlns="http://www.w3.org/2000/svg">
<path fill-rule="evenodd" clip-rule="evenodd" d="M0 0V47.9994H47.9994V0H0ZM24.0287 4.97264C25.4287 4.97414 26.5817 6.07412 26.6477 7.47261H28.6856C29.2746 7.47261 29.7476 7.9478 29.7476 8.53699V8.77529H36.1385C37.1675 8.77529 37.9955 9.60308 37.9955 10.6329V41.1675C37.9955 42.1975 37.1675 43.0265 36.1385 43.0265H11.8609C10.8319 43.0265 10.0019 42.1975 10.0019 41.1675V10.6329C10.0019 9.60308 10.8319 8.77529 11.8609 8.77529H18.2498V8.53699C18.2498 7.9478 18.7228 7.47261 19.3118 7.47261H21.4097C21.4767 6.07412 22.6287 4.97414 24.0287 4.97264ZM23.9857 6.42372C23.3377 6.42332 22.8117 6.94911 22.8117 7.5976C22.8117 8.246 23.3377 8.77179 23.9857 8.77139C24.6337 8.77069 25.1587 8.2453 25.1577 7.5976C25.1587 6.94991 24.6337 6.42442 23.9857 6.42372ZM19.6558 8.1894C19.3008 8.1894 19.0158 8.47509 19.0158 8.82999V9.99987V11.0509H28.9506V9.99987V8.82999C28.9506 8.47509 28.6646 8.1894 28.3106 8.1894H26.5637C26.3687 9.02449 25.7817 9.68048 25.0287 9.99987H25.0407C25.0137 10.0099 24.9877 10.0199 24.9607 10.0289C24.9157 10.0469 24.8707 10.0649 24.8237 10.0799C24.7167 10.1159 24.6067 10.1439 24.4957 10.1659C24.4657 10.1719 24.4347 10.1749 24.4037 10.1799C24.2747 10.2009 24.1427 10.2129 24.0117 10.2149H23.9997C23.8717 10.2119 23.7447 10.2009 23.6187 10.1799C23.5877 10.1749 23.5557 10.1719 23.5247 10.1659C23.4087 10.1439 23.2937 10.1139 23.1817 10.0759C23.1457 10.0639 23.1107 10.0509 23.0757 10.0369C23.0427 10.0249 23.0107 10.0129 22.9787 9.99987H22.9937C22.2407 9.68048 21.6547 9.02449 21.4587 8.1894H19.6558ZM23.3457 12.9218L23.3437 12.9238C23.3397 12.9238 23.3377 12.9278 23.3337 12.9278C23.3307 12.9278 23.3277 12.9258 23.3237 12.9258C23.3057 12.9268 23.2907 12.9378 23.2727 12.9408C23.2337 12.9488 23.1957 12.9558 23.1597 12.9748C23.1357 12.9858 23.1167 13.0048 23.0957 13.0198C23.0697 13.0378 23.0427 13.0568 23.0207 13.0798C22.9897 13.1138 22.9667 13.1558 22.9467 13.1988C22.9427 13.2068 22.9347 13.2148 22.9317 13.2268L22.9297 13.2338C22.9267 13.2418 22.9217 13.2478 22.9197 13.2558L21.6187 16.7398L20.7947 14.6288C20.7007 14.3888 20.4347 14.2718 20.1947 14.3648C20.1877 14.3678 20.1827 14.3728 20.1757 14.3768C20.1167 14.3998 20.0627 14.4328 20.0158 14.4798L18.7338 15.7518H15.3358C15.0788 15.7518 14.8728 15.9598 14.8728 16.2168C14.8728 16.4738 15.0788 16.6818 15.3358 16.6818H18.8258C18.8498 16.6818 18.8728 16.6698 18.8958 16.6658C19.0248 16.6738 19.1558 16.6358 19.2558 16.5368L20.1857 15.6148L21.1987 18.2168C21.2927 18.4558 21.5607 18.5738 21.8007 18.4798C21.9447 18.4238 22.0357 18.3008 22.0717 18.1618C22.0747 18.1548 22.0787 18.1518 22.0817 18.1448L23.0717 15.4918L23.5037 20.6497C23.5247 20.9067 23.7497 21.0957 24.0057 21.0737C24.0067 21.0737 24.0077 21.0717 24.0097 21.0717C24.1897 21.0607 24.3527 20.9417 24.4157 20.7597L26.1537 15.7228L27.5157 17.8958C27.5287 17.9188 27.5497 17.9298 27.5657 17.9508C27.5857 17.9738 27.5997 17.9998 27.6247 18.0198C27.6287 18.0218 27.6327 18.0228 27.6367 18.0268C27.6507 18.0388 27.6677 18.0408 27.6837 18.0488C27.8797 18.1628 28.1316 18.1268 28.2766 17.9428L29.3516 16.5798H32.6596C32.9166 16.5798 33.1246 16.3718 33.1246 16.1148C33.1246 15.8578 32.9166 15.6518 32.6596 15.6518H29.1696C29.1436 15.6518 29.1206 15.6638 29.0956 15.6678C29.0616 15.6698 29.0326 15.6798 28.9996 15.6878C28.9946 15.6888 28.9886 15.6898 28.9836 15.6908C28.8976 15.7178 28.8166 15.7628 28.7556 15.8398L27.9567 16.8538L26.4487 14.4468C26.3947 14.3608 26.3137 14.3048 26.2267 14.2698C26.2087 14.2618 26.1947 14.2458 26.1757 14.2378C25.9327 14.1538 25.6697 14.2818 25.5857 14.5248L24.2477 18.4018L23.8257 13.3768C23.8257 13.3688 23.8247 13.3588 23.8237 13.3518C23.8237 13.3498 23.8217 13.3488 23.8217 13.3478C23.8167 13.2878 23.8017 13.2298 23.7747 13.1778C23.7707 13.1698 23.7627 13.1618 23.7577 13.1538C23.7317 13.1118 23.7037 13.0718 23.6657 13.0388C23.6537 13.0278 23.6367 13.0248 23.6227 13.0138C23.5917 12.9908 23.5637 12.9688 23.5267 12.9548C23.5217 12.9528 23.5187 12.9548 23.5137 12.9528C23.4937 12.9458 23.4717 12.9448 23.4507 12.9408C23.4157 12.9338 23.3797 12.9218 23.3457 12.9218ZM13.9378 23.9997V25.3747H34.0606V23.9997H13.9378ZM13.9378 27.9996V29.3746H34.0606V27.9996H13.9378ZM13.9378 31.9996V33.3746H34.0606V31.9996H13.9378ZM13.9378 35.9995V37.3745H26.6227V35.9995H13.9378Z" fill="#333333"/>
</svg>

<?xml version="1.0" encoding="UTF-8" standalone="no"?>
<!-- Created with Inkscape (http://www.inkscape.org/) -->
<svg id="svg8" xmlns:rdf="http://www.w3.org/1999/02/22-rdf-syntax-ns#" xmlns="http://www.w3.org/2000/svg" xmlns:osb="http://www.openswatchbook.org/uri/2009/osb" height="48" width="48" version="1.1" xmlns:cc="http://creativecommons.org/ns#" viewBox="0 0 12.7 12.7" xmlns:dc="http://purl.org/dc/elements/1.1/">
 <title id="title4753">UIO-icon</title>
 <metadata id="metadata5">
  <rdf:RDF>
   <cc:Work rdf:about="">
    <dc:format>image/svg+xml</dc:format>
    <dc:type rdf:resource="http://purl.org/dc/dcmitype/StillImage"/>
    <dc:title>UIO-icon</dc:title>
    <dc:creator>
     <cc:Agent>
      <dc:title>Joaquín Urbano</dc:title>
     </cc:Agent>
    </dc:creator>
    <dc:rights>
     <cc:Agent>
      <dc:title>GPL</dc:title>
     </cc:Agent>
    </dc:rights>
   </cc:Work>
  </rdf:RDF>
 </metadata>
 <g id="layer1" fill="#333" transform="translate(0,-284.3)">
  <path id="rect4810" d="m0 0v48h48v-48h-48zm24.029 4.9727c1.4 0.0015 2.553 1.1015 2.619 2.5h2.038c0.589 0 1.062 0.4752 1.062 1.0644v0.2383h6.391c1.029 0 1.857 0.8278 1.857 1.8576v30.535c0 1.03-0.828 1.859-1.857 1.859h-24.278c-1.029 0-1.859-0.829-1.859-1.859v-30.535c0-1.0298 0.83-1.8576 1.859-1.8576h6.389v-0.2383c0-0.5892 0.473-1.0644 1.062-1.0644h2.098c0.067-1.3985 1.219-2.4985 2.619-2.5zm-0.043 1.4511c-0.648-0.0004-1.174 0.5254-1.174 1.1739 0 0.6484 0.526 1.1742 1.174 1.1738 0.648-0.0007 1.173-0.5261 1.172-1.1738 0.001-0.6477-0.524-1.1732-1.172-1.1739zm-4.33 1.7657c-0.355 0-0.64 0.2857-0.64 0.6406v1.1699 1.051h9.935v-1.051-1.1699c0-0.3549-0.286-0.6406-0.64-0.6406h-1.747c-0.195 0.8351-0.782 1.4911-1.535 1.8105h0.012c-0.027 0.01-0.053 0.02-0.08 0.029-0.045 0.018-0.09 0.036-0.137 0.051-0.107 0.036-0.217 0.064-0.328 0.086-0.03 0.006-0.061 0.009-0.092 0.014-0.129 0.021-0.261 0.033-0.392 0.035h-0.012c-0.128-0.003-0.255-0.014-0.381-0.035-0.031-0.005-0.063-0.008-0.094-0.014-0.116-0.022-0.231-0.052-0.343-0.09-0.036-0.012-0.071-0.025-0.106-0.039-0.033-0.012-0.065-0.024-0.097-0.037h0.015c-0.753-0.3194-1.339-0.9754-1.535-1.8105h-1.803zm3.69 4.7325l-0.002 0.002c-0.004 0-0.006 0.004-0.01 0.004-0.003 0-0.006-0.002-0.01-0.002-0.018 0.001-0.033 0.012-0.051 0.015-0.039 0.008-0.077 0.015-0.113 0.034-0.024 0.011-0.043 0.03-0.064 0.045-0.026 0.018-0.053 0.037-0.075 0.06-0.031 0.034-0.054 0.076-0.074 0.119-0.004 0.008-0.012 0.016-0.015 0.028l-0.002 0.007c-0.003 0.008-0.008 0.014-0.01 0.022l-1.301 3.484-0.824-2.111c-0.094-0.24-0.36-0.357-0.6-0.264-0.007 0.003-0.012 0.008-0.019 0.012-0.059 0.023-0.113 0.056-0.16 0.103l-1.282 1.272h-3.398c-0.257 0-0.463 0.208-0.463 0.465s0.206 0.465 0.463 0.465h3.49c0.024 0 0.047-0.012 0.07-0.016 0.129 0.008 0.26-0.03 0.36-0.129l0.93-0.922 1.013 2.602c0.094 0.239 0.362 0.357 0.602 0.263 0.144-0.056 0.235-0.179 0.271-0.318 0.003-0.007 0.007-0.01 0.01-0.017l0.99-2.653 0.432 5.158c0.021 0.257 0.246 0.446 0.502 0.424 0.001 0 0.002-0.002 0.004-0.002 0.18-0.011 0.343-0.13 0.406-0.312l1.738-5.037 1.362 2.173c0.013 0.023 0.034 0.034 0.05 0.055 0.02 0.023 0.034 0.049 0.059 0.069 0.004 0.002 0.008 0.003 0.012 0.007 0.014 0.012 0.031 0.014 0.047 0.022 0.196 0.114 0.448 0.078 0.593-0.106l1.075-1.363h3.308c0.257 0 0.465-0.208 0.465-0.465s-0.208-0.463-0.465-0.463h-3.49c-0.026 0-0.049 0.012-0.074 0.016-0.034 0.002-0.063 0.012-0.096 0.02-0.005 0.001-0.011 0.002-0.016 0.003-0.086 0.027-0.167 0.072-0.228 0.149l-0.799 1.014-1.508-2.407c-0.054-0.086-0.135-0.142-0.222-0.177-0.018-0.008-0.032-0.024-0.051-0.032-0.243-0.084-0.506 0.044-0.59 0.287l-1.338 3.877-0.422-5.025c0-0.008-0.001-0.018-0.002-0.025 0-0.002-0.002-0.003-0.002-0.004-0.005-0.06-0.02-0.118-0.047-0.17-0.004-0.008-0.012-0.016-0.017-0.024-0.026-0.042-0.054-0.082-0.092-0.115-0.012-0.011-0.029-0.014-0.043-0.025-0.031-0.023-0.059-0.045-0.096-0.059-0.005-0.002-0.008 0-0.013-0.002-0.02-0.007-0.042-0.008-0.063-0.012-0.035-0.007-0.071-0.019-0.105-0.019zm-9.408 11.078v1.375h20.123v-1.375h-20.123zm0 4v1.375h20.123v-1.375h-20.123zm0 4v1.375h20.123v-1.375h-20.123zm0 4v1.375h12.685v-1.375h-12.685z" fill-rule="evenodd" transform="matrix(.26458 0 0 .26458 0 284.3)"/>
 </g>
</svg>
